assets/img/braze_icons/send-02.svg

<svg fill="none" height="24" viewBox="0 0 24 24" width="24" xmlns="http://www.w3.org/2000/svg"><path d="m12.7036 1.87495c-.4186-.20784-.9102-.20863-1.3296-.00214-.3692.18183-.5632.50167-.6568.66733-.1007.17837-.204.40705-.307.63504l-7.58455 16.78252c-.10568.2337-.21099.4666-.2794.6631-.06274.1801-.17764.5434-.06618.9457.12591.4545.45823.8233.8972.9957.38861.1526.76177.0761.94748.0324.20248-.0477.44507-.1282.68851-.2091l4.89076-1.6233c.39408-.1308.59108-.1962.73678-.3178.1287-.1074.2283-.2454.2897-.4013.0695-.1766.0695-.3842.0695-.7994v-7.2437c0-.5523.4477-1 1-1s1 .4477 1 1v7.2248c0 .4142 0 .6213.0692.7975.0612.1557.1604.2935.2886.4009.1452.1216.3415.1874.7343.3189l4.8952 1.6387c.243.0814.4853.1626.6875.2107.1856.0442.5583.1216.9472-.0298.4393-.1712.7726-.5389.8998-.9929.1126-.4018-.001-.7652-.0631-.9455-.0678-.1966-.1723-.4298-.2772-.6637l-7.5182-16.77917c-.1023-.22833-.2048-.45735-.305-.63605-.0931-.16596-.286-.48642-.6547-.66943z" fill="#801ed7"/></svg>

<svg width="24" height="24" viewBox="0 0 24 24" fill="none" xmlns="http://www.w3.org/2000/svg">
<path d="M12.7036 1.87495C12.285 1.66711 11.7934 1.66632 11.374 1.87281C11.0048 2.05464 10.8108 2.37448 10.7172 2.54014C10.6165 2.71851 10.5132 2.94719 10.4102 3.17518L2.82565 19.9577C2.71997 20.1914 2.61466 20.4243 2.54625 20.6208C2.48351 20.8009 2.36861 21.1642 2.48007 21.5665C2.60598 22.021 2.9383 22.3898 3.37727 22.5622C3.76588 22.7148 4.13904 22.6383 4.32475 22.5946C4.52723 22.5469 4.76982 22.4664 5.01326 22.3855L9.90402 20.7622C10.2981 20.6314 10.4951 20.566 10.6408 20.4444C10.7695 20.337 10.8691 20.199 10.9305 20.0431C11 19.8665 11 19.6589 11 19.2437V12C11 11.4477 11.4477 11 12 11C12.5523 11 13 11.4477 13 12V19.2248C13 19.639 13 19.8461 13.0692 20.0223C13.1304 20.178 13.2296 20.3158 13.3578 20.4232C13.503 20.5448 13.6993 20.6106 14.0921 20.7421L18.9873 22.3808C19.2303 22.4622 19.4726 22.5434 19.6748 22.5915C19.8604 22.6357 20.2331 22.7131 20.622 22.5617C21.0613 22.3905 21.3946 22.0228 21.5218 21.5688C21.6344 21.167 21.5208 20.8036 21.4587 20.6233C21.3909 20.4267 21.2864 20.1935 21.1815 19.9596L13.6633 3.18043C13.561 2.9521 13.4585 2.72308 13.3583 2.54438C13.2652 2.37842 13.0723 2.05796 12.7036 1.87495Z" fill="#801ED7"/>
</svg>
